X:1
T:Conditor alme siderum
T:Pietro Pontio [1532-1595]
T:From "Hymni solemniores ad vespertinas horas canendi" 1596
T:Conditor alme siderum
T:In adventu Domini
C:Pietro Pontio [1532-1595]
Z:From "Hymni solemniores ad
Z:vespertinas horas canendi" 1596
%%score [ 1 2 3 4 ]
L:1/8
M:4/4
K:C
V:1 treble nm="Cantus" snm="S."
V:2 treble-8 transpose=-12 nm="Altus" snm="A."
V:3 treble-8 transpose=-12 nm="Tenor" snm="T."
V:4 bass nm="Bassus" snm="B."
V:1
 E8 | C4 E4 | G4 A2 c2- | cB A4 GF | G6 G2 | G2 c4 B2 | c4 z4 | z2 A2 G2 c2 | B4 A3 G | F4 E3 E | %10
w: Con-|di- tor|al- me si-||* de-|rum, si- de-|rum,|con- di- tor|al- * *|me si- de-|
w: ||||||||||
 G8 | z8 | G4 A4 | F2 G4 E2- | E2 A4 G2 | A2 c2 c2 c2 | B4 G2 A2- | A2 F2 E4 | D4 z4 | z8 | G8 | %21
w: rum.||Ae- ter-|na lux cre-|* den- ti-|um, Chris- te re-|demp- tor om-|* ni- um,|_||ex-|
w: |||||||||||
 B3 c d2 B2 | c4 G2 A2- | AG G F/E/ F2 F2 | E4 z2 c2 | c2 c2 A4- | A2 A2 A2 A2 ^G16 || z8 | z8 | %29
w: au- * * di|pre- ces sup-|* * * * * * pli-|cum, ex-|au- di pre-|* ces sup- pli- cum.|||
w: ||||||||
 z8 | z8 | z8 | z8 | z8 | z8 ||[M:4/4] E8- | E4 C4- | C4 E4- | E4 G3 G | A4 F4 | G8- | G4 z4 | %42
w: ||||||Ver-|* gen-|* te|_ mun- di|ves- pe-|re.|_|
w: |||||||||||||
 G4 A4 | F2 G4 E2 | F3 F E4 | z8 | z8 | z8 | G8 | F4 D4 | E4 F4 | E6 D2 | C4 z4 | C8 | E6 E2 | %55
w: u- ti|spon- sus de|tha- la- mo,||||e-|gres- sus|ho- nes-|tis- si-|ma|vir-|gi- nis|
w: |||||||||||||
 G8- | G8 | E4 F4 | F6 F2 | E16 || z8 | z8 | z8 | z8 | z8 | z8 | z8 | z8 || E8- | E4 C4 | E4 G4 | %71
w: ma-||tris _|clau- su|la.|||||||||Te|_ de-|pre- *|
w: |||||||||||||Te,|_ _|sanc- *|
 G8 | G4 A4- | A2 A2 G4- | G4 z4 | z8 | z4 G4- | G4 A4- | A2 F2 G4 | G2 c3 B AG | FE E4 D2 | %81
w: ca-|mur a-|* gi- e,|_||ven-|* tu-|* re iu-|dex sae- * * *|* * * cu-|
w: te|quae- *|* su- mus,|_|||||||
 E4 z4 | z4 G4 | F2 F2 E4 | F2 A4 G2 | A4 z4 | E4 G3 A | B2 B2 c4- | c4 B4 | A6 A2 | A8 | %91
w: li,|con-|ser- va nos|in tem- po-|re|hos- tis _|_ a te-|* lo|per- fi-|di,|
w: ||||||||||
 c3 B A2 A2 ^G16 || z8 | z8 | z8 | z8 | z8 | z8 | z8 | z8 || z10 |] %101
w: per- * * fi- di.||||||||||
w: ||||||||||
V:2
 z8 | z4 c4- | c4 A4 | c4 e4- | e2 B2 e4- | e4 d4 | c4 e4- | e2 e2 e4 | e3 d c2 c2 | dA d4 c2 | %10
w: |Con-|* di-|tor al-|* me si-|* de-|rum, con-|* di- tor|al- * * me|si- * * de-|
w: ||||||||||
 d2 d4 e2- | e2 c2 (d4 | e3) d c2 c2 | d2 B2 c4 | z4 z2 e2 | c3 d e2 f2 | g2 d2 e2 c2 | d4 z4 | %18
w: rum. Ae- ter-|* na lux|_ _ _ cre-|den- ti- um,|Chris-|te _ _ re-|demp- tor om- ni-|um,|
w: ||||||||
 z2 G2 A3 B | c2 c2 d3 d | e4 z2 G2- | G2 B3 c d2 | c2 e4 e2- | ed Bc d4 | c3 d ec f2- | fe e4 d2 | %26
w: re- demp- *|* tor om- ni-|um, ex-|* au- * *|di pre- ces|_ _ _ _ _|sup- * * * *|* * * pli-|
w: ||||||||
 e24 || E2 C2 E2 G2 | G2 A2 F2 G2 | G2 A2 F2 G2 | E2 F2 D2 E2 | G2 F2 D2 E2 | F2 E2 D2 C2 | %33
w: cum.|Qui con- do- lens|in- te- ri- tu|mor- tis pe- ri-|re sae- cu- lum,|sal- vas- ti mun-|dum lan- gui- dum,|
w: |||||||
 C2 E2 F2 G2 | E2 F2 D2 E2 ||[M:4/4] c4 c2 c2 | B2 c2 AG FG | A2 A2 c4 | z2 c2 d2 e2 | %39
w: do- nans re- i|re- me- di- um.|Ver- gen- te|mun- di ves- * * *|* pe- re,|ver- gen- te|
w: ||||||
 A2 c2 c2 d2 | e4 z4 | z4 d4 | e4 c2 d2- | dc BA B2 c2 | d3 d B2 e2- | e2 f4 d2 | e3 d/c/ B2 B2 | %47
w: mun- di ves- pe-|re.|u-|ti spon- sus|_ _ _ _ _ de|tha- la- mo, u-|* ti spon-|sus _ _ _ de|
w: ||||||||
 A3 B cd ec | d2 d2 e4 | z4 z2 G2 | G2 G2 FG AB | c6 B2 | A2 A2 G4 | z4 A4 | c6 c2 | e8- | %56
w: tha- * * * * *|* la- mo,|e-|gres- sus ho- * * *|* nes-|tis- si- ma|vir-|gi- nis|ma-|
w: |||||||||
 e4 d2 e2- | ed cB AB cA | d6 d2 | ^c16 || E2 C2 E2 G2 | G2 A2 F2 G2 | G2 A2 F2 G2 | E2 F2 D2 E2 | %64
w: * tris clau-||* su-|la.|Cu- ius for- ti|po- ten- ti- ae|ge- nu cur- van-|tur om- ni- a,|
w: ||||||||
 G2 F2 D2 E2 | F2 E2 D2 C2 | C2 E2 F2 G2 | E2 F2 D2 E2 || B8 | c2 BA G2 A2 | G2 c2 B4 | e4 d4 | %72
w: cae- les- ti- a,|ter- res- tri- a|nu- tu fa- ten-|tur om- ni- a.|Te|de- * * * pre-|ca- mur a-|* gi-|
w: ||||Te|sanc- * * * *|* te quae-|* su-|
 c2 e2 f2 d2 | c3 d e2 d2 | ef g4 f2 | g2 e4 f2- | f2 d2 e4 | d3 e f2 f2 | e2 dc d4 | e3 e c4 | %80
w: e, te de- pre-|ca- * * mur|a- * * gi-|e, ven- tu-|* re iu-|* * * dex|sae- * * *|* cu- li,|
w: mus, te sanc- *|* * te quae-|* * * su-|mus, * *|||||
 z4 d4 | c3 B A2 A2 | B3 c dA d2- | d c/B/ AB c2 B2 | c2 d2 e4 | z2 A2 c2 B2 | c3 d e2 e2 | %87
w: con-|ser- * * va|nos _ _ _ _|_ _ _ _ _ _ in|tem- po- re.|hos- tis a|te- * * lo|
w: |||||||
 d3 d c2 c2- | c2 e4 e2 | cA f4 ed | c4 d4 | e3 d c2 c2 B16 || E2 C2 E2 G2 | G2 A2 F2 G2 | %94
w: per- fi- di, hos-|* tis a|te- * * * *|* lo|per- * * si- di.|Sit Chris- te, rex|pi- is- si- me,|
w: |||||||
 G2 A2 F2 G2 | E2 F2 D2 E2 | G2 F2 D2 E2 | F2 E2 D2 C2 | C2 E2 F2 G2 | E2 F2 D2 E2 || %100
w: ti- bi pa- tri-|que glo- ri- a|cum spi- ri- tu|pa- ra cli- to,|in sem- pi- ter-|na sae- cu- la.|
w: ||||||
 E2 F2 E2 D2 E2 |] %101
w: A- * * men. _|
w: |
V:3
 z8 | z8 | z8 | z4 E4- | E4 C4 | E4 G4- | G2 G2 G2 G2 | A2 c3 B A2- | A2 G2 A4- | A4 z4 | B8 | %11
w: |||Con-|* di-|tor al-|* me si- de-|rum, si- * *|* de- rum.|_|Ae-|
w: |||||||||||
 c4 A2 B2- | B2 c4 A2- | A2 G2 G2 G2 | c4 B4 | A2 A2 A2 A2 | G4 E2 F2- | FG A3 G/F/ GA | %18
w: ter- na lux|_ cre- den-|* ti- um, cre-|den- ti-|um, Chris- te re-|demp- tor om-||
w: |||||||
 Bc d3 c/B/ A2- | AB c4 B2 | c2 C2 E3 F | G2 G2 G4 | A2 c4 c2 | B2 G2 A4- | A2 A2 A4 | G4 FG AB | %26
w: |* * * ni-|um, ex- au- *|* di pre-|ces sup- pli-|cum, ex- au-|* di pre-|ces sup- * * *|
w: ||||||||
 c6 c2 B16 || z8 | z8 | z8 | z8 | z8 | z8 | z8 | z8 ||[M:4/4] A4 A2 A2 | G2 E2 F4- | F2 F2 C2 c2 | %38
w: * pli- cum.|||||||||Ver- gen- te|mun- di ves-|* pe- re, ver-|
w: ||||||||||||
 c2 A2 B2 c2- | c2 A4 A2 | B2 c2 B2 e2- | ed c3 B B A/B/ | c2 c2 F4 | z2 G4 A2- | A2 F2 G4 | %45
w: gen- te mun- di|_ ves- pe-|re, mun- di ves-||* pe- re,|u- ti|_ spon- sus|
w: |||||||
 A6 B2- | BA A4 G2 | A2 c2 c2 c2 | B6 c2 | AB c3 B B A/B/ | c3 B A4- | A2 A2 G4 | E4 z2 E2 | %53
w: de tha-|* * * la-|mo, e- gres- sus|ho- nes-|tis- * * * * * *||* si- ma.|_ vir-|
w: ||||||||
 A2 G2 FG AF | G2 G2 A3 A | G2 c2 c2 c2- | c2 BA B4 | c6 A2 | A6 A2 | A16 || z8 | z8 | z8 | z8 | %64
w: gi- nis ma- * * *|* tris clau- su-|la, vir- gi- nis|_ _ _ _|ma- tris|clau- su-|la.|||||
w: |||||||||||
 z8 | z8 | z8 | z8 || G8 | G3 F E2 F2 | E2 E3 F G2- | G2 c4 B2 | c2 c2 F2 F2 | FG AB c2 B2 | %74
w: ||||Te|de- * * pre-|ca- mur _ _|_ a- gi-|e, te de- pre-|ca- * * * * mur|
w: ||||Te|sanc- * * *|* te _ _|_ quae- su-|mus, te sanc- te|quae- * * * * *|
 c3 B A2 A2 | G2 G2 A4 | A3 B c2 c2- | c B/A/ B2 c2 d2- | dc c4 B2 | c4 A4 | A3 G F2 F2 | E4 ^F4 | %82
w: a- * * gi-|e, ven- tu-|re _ _ iu-|* * * * dex sae-|* * * cu-|li, con-|ser- * * va|nos in|
w: * * * su-|mus, * *|||||||
 G3 A B2 B2 | A4 z4 | A4 c2 B2 | c3 B A2 G2 | A2 GF EC EF | G3 G A2 E2- | E2 A4 G2 | A4 A2 c2- | %90
w: tem- * * po-|re|hos- tis a|te- * * lo|per- fi- * * * * *|* * di, hos-|* tis a|te- lo per-|
w: ||||||||
 cB AG F2 F2 | E24 || z8 | z8 | z8 | z8 | z8 | z8 | z8 | z8 || z10 |] %101
w: * * * * * fi-|di.||||||||||
w: |||||||||||
V:4
 z8 | z8 | z8 | z8 | z8 | z8 | C,8 | A,,4 C,4 | E,4 F,4 | D,4 A,3 A, | G,4 G,4 | A,4 F,2 G,2- | %12
w: ||||||Con-|di- tor|al- me|si- * de-|rum. Ae-|ter- na lux|
w: ||||||||||||
 G,2 E,2 F,3 E, | D,2 E,2 C,2 C,2 | A,,B,, C,D, E,2 E,2 | A,,4 z4 | z8 | D,4 E,3 F, | %18
w: _ cre- den- *|* ti- um, cred-|den- * * * * ti-|um,||Chris- te _|
w: ||||||
 G,2 G,2 F,4- | F,2 E,2 D,3 D, | C,4 z4 | z8 | A,,4 C,3 D, | E,2 E,2 D,4 | A,,8 | C,4 D,3 C, | %26
w: dem- * *|* tor om- ni-|um,||ex- au- *|* di pre-|ces|sup- * *|
w: ||||||||
 A,,6 A,,2 E,16 || z8 | z8 | z8 | z8 | z8 | z8 | z8 | z8 ||[M:4/4] z8 | z8 | z4 z2 A,2 | %38
w: * pli- cum.|||||||||||Ver-|
w: ||||||||||||
 A,2 A,2 G,2 E,2 | F,6 F,2 | E,2 E,4 C,2 | E,3 F, G,2 G,2 | C,4 z4 | z8 | D,4 E,4 | C,2 D,4 B,,2 | %46
w: gen- te mun- di|ves- pe-|re, mun- di,|ves- * * pe-|re,||u- ti|spon- sus de|
w: ||||||||
 C,3 D, E,2 E,2 | A,,2 A,2 A,2 A,2 | G,3 F, E,2 C,2 | F,4 G,3 G, | C,2 C,2 D,3 C, | %51
w: tha- * * la-|mo, e- gres- sus|ho- * * nes-|tis- * si-|ma e- gres- *|
w: |||||
 A,,3 B,, C,2 G,,2 | A,,B,, C,D, E,F, G,E, | F,2 E,2 F,2 F,2 | C,4 z4 | C,8 | E,3 F, G,2 G,2 | %57
w: * * * sus|ho- * * * * * * *|* nes- tis- si-|ma|vir-|gi- * * nis|
w: ||||||
 A,3 G, F,2 F,2 | D,6 D,2 | A,,16 || z8 | z8 | z8 | z8 | z8 | z8 | z8 | z8 || E,8 | C,6 A,,2 | %70
w: ma- * * tris|clau- su-|la.|||||||||Te|de- pre-|
w: |||||||||||Te|sanc- *|
 C,3 D, E,2 E,2 | C,D, E,F, G,3 G, | C,4 z4 | z8 | z4 D,4 | E,4 C,2 D,2- | D,2 D,2 C,D, E,F, | %77
w: ca- * * mur|a- * * * * gi-|e,||ven-|tu- re iu-|* dex sae- * * *|
w: * * te quae-|* * * * * su-|mus,|||||
 G,4 F,3 G, | A,4 G,3 G, | C,2 C,2 F,3 E, | D,2 ^C,2 D,4 | A,,4 D,3 D, | G,,2 G,2 G,2 G,2 | %83
w: |* * cu-|li, ven- tu- *|* re iu-|dex sae- cu-|li, con- ser- va|
w: ||||||
 D,E, F,G, A,2 G,2 | F,4 E,3 E, | A,,4 z4 | z8 | z4 A,,4 | C,4 E,4 | F,3 E, D,2 C,2 | F,3 E, D,4 | %91
w: nos _ _ _ _ in|tem- * po-|re||hos-|tis a|te- * * lo|per- * *|
w: ||||||||
 A,,6 A,,2 E,16 || z8 | z8 | z8 | z8 | z8 | z8 | z8 | z8 || z10 |] %101
w: * fi- di.||||||||||
w: ||||||||||

